icons/folder-docs.svg

<svg xmlns="http://www.w3.org/2000/svg" viewBox="0 0 32 32">
  <path d="M13.84376,7.53645l-1.28749-1.0729A2,2,0,0,0,11.27591,6H4A2,2,0,0,0,2,8V24a2,2,0,0,0,2,2H28a2,2,0,0,0,2-2V10a2,2,0,0,0-2-2H15.12412A2,2,0,0,1,13.84376,7.53645Z" style="fill: #0277bd"/>
  <path d="M24,10H17a1,1,0,0,0-1,1V27a1,1,0,0,0,1,1H29a1,1,0,0,0,1-1V16Zm0,16H18V24h6Zm4-4H18V20H28Zm-4.82843-5.17157V12L28,16.82843Z" style="fill: #b3e5fc"/>
</svg>

<svg xmlns="http://www.w3.org/2000/svg" viewBox="0 0 32 32"><path fill="#0277bd" d="m13.844 7.536-1.288-1.072A2 2 0 0 0 11.276 6H4a2 2 0 0 0-2 2v16a2 2 0 0 0 2 2h24a2 2 0 0 0 2-2V10a2 2 0 0 0-2-2H15.124a2 2 0 0 1-1.28-.464Z"/><path fill="#b3e5fc" d="M24 10h-7a1 1 0 0 0-1 1v16a1 1 0 0 0 1 1h12a1 1 0 0 0 1-1V16Zm0 16h-6v-2h6Zm4-4H18v-2h10Zm-4.828-5.172V12L28 16.828Z"/></svg>
